X: 39
T: Rose Anne's
D:Jackie Daly, "Many's a Wild Night"
M:2/4
L:1/8
R:polka
K:A
E |: A>G Ac | B>A Bc | A>G Ac | ea a2 |
A>G Ac | B>A Bc | AF EF | D2 D2 :|
|: eA Ac | B/c/B/A/ Bc | eA Ac | ea a>f |
eA Ac | B/c/B/A/ Bc | AF EF | D2 D2 :|
%%sep 1 1 500
